X:1
T:Lyne, 77.77
T:Magadalen Chapel Hymns, circa 1760
T:Lyne, 77.77
T:Public Domain
C:Magadalen Chapel Hymns, circa 1760
Z:Public Domain
%%score ( 1 2 ) ( 3 4 )
L:1/8
M:3/4
K:Eb
V:1 treble 
V:2 treble 
V:3 bass 
V:4 bass 
V:1
 E4 [B,F]2 | (G3 F) [B,E]2 | [EG]4 [E=A]2 | [FB]6 | [EB]4 [Dc]2 | [EB]4 [FA]2 | (G3 A) [DF]2 | E6 | %8
 (B3 A) [EG]2 | [EB]4 E2 | ([EG]3 [FA]) [EG]2 | [DF]6 | (G3 A) [DB]2 | (e2 B2) [EA]2 | %14
 ([EG]2 [FA]2) [DF]2 | E6 |] %16
V:2
 E4 x2 | B,4 x2 | x6 | x6 | x6 | x6 | E4 x2 | E6 | F4 x2 | x4 E2 | x6 | x6 | E4 x2 | E4 x2 | x6 | %15
 E6 |] %16
V:3
 [E,G,]4 [D,B,]2 | [E,B,]4 G,2 | (E,2 D,2) [C,C]2 | (B,,2 B,2 A,2) | [G,B,]4 [F,A,]2 | %5
 [G,B,]4 [A,C]2 | B,4 [B,,A,]2 | [E,G,]6 | [D,B,]4 [E,B,]2 | [G,B,]4 [G,B,]2 | [C,C]4 [E,B,]2 | %11
 [B,,B,]6 | [E,B,]4 [F,A,]2 | (G,2 B,2) [A,C]2 | B,4 [B,,A,]2 | [E,G,]6 |] %16
V:4
 x6 | x4 G,2 | B,4 x2 | D6 | x6 | x6 | B,4 x2 | x6 | x6 | x6 | x6 | x6 | x6 | G,4 x2 | B,4 x2 | %15
 x6 |] %16

